src/assets/img/logo.svg

<svg width="100" height="26" viewBox="0 0 100 26" fill="none" xmlns="http://www.w3.org/2000/svg">
<path d="M83.1182 25.7841V4.47729H87.2987L96.0083 18.7061V4.47729H100V25.7841H95.6889L87.11 11.8896V25.7841H83.1182Z" fill="black"/>
<path d="M80.7811 25.7841H76.107L74.249 20.9443H65.7426L63.9862 25.7841H59.4282L67.7168 4.47729H72.2603L80.7811 25.7841ZM72.8699 17.3544L69.9377 9.44792L67.0636 17.3544H72.8699Z" fill="black"/>
<path d="M43.5332 25.784V4.65161H47.8299V22.1941H58.5136V25.784H43.5332Z" fill="black"/>
<path d="M23.5884 25.7841V4.47729H30.4834C33.0963 4.47729 34.7995 4.58388 35.593 4.79704C36.8124 5.11679 37.8333 5.81442 38.6559 6.88994C39.4784 7.95576 39.8897 9.33649 39.8897 11.0321C39.8897 12.3402 39.6526 13.4399 39.1785 14.3313C38.7043 15.2228 38.0994 15.9252 37.364 16.4388C36.6382 16.9426 35.8979 17.2769 35.143 17.4416C34.1172 17.6451 32.6318 17.7468 30.6867 17.7468H27.8851V25.7841H23.5884ZM27.8851 8.08172V14.1279H30.2367C31.9302 14.1279 33.0624 14.0164 33.6334 13.7936C34.2043 13.5707 34.6495 13.2219 34.9688 12.7471C35.2979 12.2724 35.4624 11.7201 35.4624 11.0903C35.4624 10.3151 35.235 9.67562 34.7801 9.17177C34.3253 8.66793 33.7495 8.35302 33.0527 8.22706C32.5398 8.13017 31.5092 8.08172 29.9609 8.08172H27.8851Z" fill="black"/>
<path d="M0 25.784V21.1273L13.4127 4.54113H1.51546V0.21582H20.2061V4.2272L6.21861 21.4761H20.7461V25.784H0Z" fill="url(#paint0_linear_6025_38296)"/>
<defs>
<linearGradient id="paint0_linear_6025_38296" x1="51.6418" y1="-6.95815" x2="51.6418" y2="34.7137" gradientUnits="userSpaceOnUse">
<stop stop-color="#0000FF"/>
<stop offset="0.27" stop-color="#00009E"/>
<stop offset="0.509"/>
<stop offset="0.574" stop-color="#680000"/>
<stop offset="1" stop-color="#FF0000"/>
</linearGradient>
</defs>
</svg>

<svg xmlns="http://www.w3.org/2000/svg" width="100" height="26" fill="none"><path fill="#000" d="M83.118 25.784V4.477h4.18l8.71 14.23V4.476H100v21.307h-4.311L87.11 11.89v13.894h-3.992ZM80.781 25.784h-4.674l-1.858-4.84h-8.506l-1.757 4.84h-4.558l8.289-21.307h4.543l8.521 21.307Zm-7.911-8.43-2.932-7.906-2.874 7.906h5.806ZM43.533 25.784V4.652h4.297v17.542h10.684v3.59h-14.98ZM23.588 25.784V4.477h6.895c2.613 0 4.317.107 5.11.32 1.22.32 2.24 1.017 3.063 2.093.822 1.066 1.234 2.446 1.234 4.142 0 1.308-.237 2.408-.712 3.3-.474.89-1.079 1.593-1.814 2.107-.726.504-1.466.838-2.221 1.003-1.026.203-2.511.305-4.456.305h-2.802v8.037h-4.297Zm4.297-17.702v6.046h2.352c1.693 0 2.825-.112 3.396-.334a2.78 2.78 0 0 0 1.336-1.047c.329-.475.493-1.027.493-1.657 0-.775-.227-1.414-.682-1.918a2.97 2.97 0 0 0-1.727-.945c-.513-.097-1.544-.145-3.092-.145h-2.076Z"/><path fill="url(#a)" d="M0 25.784v-4.657L13.413 4.541H1.515V.216h18.691v4.011L6.22 21.477h14.527v4.307H0Z"/><defs><linearGradient id="a" x1="51.642" x2="51.642" y1="-6.958" y2="34.714" gradientUnits="userSpaceOnUse"><stop stop-color="#00F"/><stop offset=".27" stop-color="#00009E"/><stop offset=".509"/><stop offset=".574" stop-color="#680000"/><stop offset="1" stop-color="red"/></linearGradient></defs></svg>
